X:1
T:Sechs Lieder
T:Sec hs Lieder für Sopran, Alt, Tenor und Bass im Freien zu singen (DRITTES HEFT) in Musik gesetzt von FELIX MENDELSSOHN BARTHOLDY Op. 59 _______________________________ 
T:CPDL - Creative Commons Attribution Non Commercial 3.0
T:CPDL - Creative Commons Attribution Non Commercial 3.0
T:CPDL - Creative Commons Attribution Non Commercial 3.0
T:CPDL - Creative Commons Attribution Non Commercial 3.0
T:CPDL - Creative Commons Attribution Non Commercial 3.0
T:CPDL - Creative Commons Attribution Non Commercial 3.0
T:CPDL - Creative Commons Attribution Non Commercial 3.0
T:CPDL - Creative Commons Attribution Non Commercial 3.0
T:CPDL - Creative Commons Attribution Non Commercial 3.0
T:CPDL - Creative Commons Attribution Non Commercial 3.0
T:CPDL - Creative Commons Attribution Non Commercial 3.0
T:CPDL - Creative Commons Attribution Non Commercial 3.0
T:CPDL - Creative Commons Attribution Non Commercial 3.0
T:CPDL - Creative Commons Attribution Non Commercial 3.0
T:CPDL - Creative Commons Attribution Non Commercial 3.0
T:CPDL - Creative Commons Attribution Non Commercial 3.0
T:CPDL - Creative Commons Attribution Non Commercial 3.0
T:CPDL - Creative Commons Attribution Non Commercial 3.0
T:CPDL - Creative Commons Attribution Non Commercial 3.0
T:CPDL - Creative Commons Attribution Non Commercial 3.0
T:CPDL - Creative Commons Attribution Non Commercial 3.0
T:CPDL - Creative Commons Attribution Non Commercial 3.0
T:CPDL - Creative Commons Attribution Non Commercial 3.0
T:CPDL - Creative Commons Attribution Non Commercial 3.0
T:CPDL - Creative Commons Attribution Non Commercial 3.0
T:CPDL - Creative Commons Attribution Non Commercial 3.0
T:CPDL - Creative Commons Attribution Non Commercial 3.0
T:CPDL - Creative Commons Attribution Non Commercial 3.0
T:CPDL - Creative Commons Attribution Non Commercial 3.0
T:CPDL - Creative Commons Attribution Non Commercial 3.0
T:CPDL - Creative Commons Attribution Non Commercial 3.0
T:CPDL - Creative Commons Attribution Non Commercial 3.0
T:CPDL - Creative Commons Attribution Non Commercial 3.0
T:CPDL - Creative Commons Attribution Non Commercial 3.0
T:CPDL - Creative Commons Attribution Non Commercial 3.0
T:CPDL - Creative Commons Attribution Non Commercial 3.0
C:Felix Mendelssohn Bartholdy
Z:CPDL - Creative Commons Attribution Non Commercial 3.0
%%score [ 1 2 3 4 ]
L:1/8
Q:1/4=72
M:9/8
K:A
V:1 treble nm="S"
V:2 treble nm="A"
V:3 treble-8 nm="T"
V:4 bass nm="B"
V:1
"^Andante con moto"!mf! E Ec A | (G3 F2) F (Fd)B | G3- G2 B d2 f | e3- (e2 c) (B2 c) | %4
w: 1.~Im Grün _ er-|wacht _ der fri- * sche|Mut, _ wenn blau der|Him- * * mel _|
w: 2.~Was such'st _ der|Mau- * ern en- * gen|Raum, _ du tö- richt'|Men- * * schen- *|
w: 3.~Wie hol- * de|Kind- * lein spielt _ um|dich _ ihr O- dem|wun- * * der- *|
 A3- A2 z!p! c3 | c2"^cresc." B c2 B{^d} c2 B | B6!p! B3 |"^cresc." A2 G A2 A c2 A | %8
w: blickt. _ Im|Grü- nen da geht al- les|gut, im|Grü- nen da geht al- les|
w: kind? _ Komm,|fühl' hier un- ter'm grü- nen|Baum, komm,|fühl' hier un- ter'm grü- nen|
w: lieb, _ und|nimmt all' dei- nen Gram mit|sich, und|nimmt all' dei- nen Gram mit|
!f! (A3 G2)!f! e =d2 c |!<(! (B3 c3) F3!<)! | d3- d2 c"^dim." B2 A | (A3 c2 B) (A2 G) | %12
w: gut, _ was je das|Herz _ be-|drückt, _ was je das|Herz _ _ be- *|
w: Baum, _ wie süß die|Lüf- * te|sind, _ wie süß die|Lüf- * * te _|
w: sich, _ du weißt nicht|wo _ er|blieb, _ du weißt nicht|wo _ _ er _|
!p! A6- A3- | A2 G"^< >" d2 B A2 G | A3- !fermata!A2 |] %15
w: drückt, _|_ was je das Herz be-|drückt. _|
w: sind, _|_ wie süß die Lüf- te|sind. _|
w: blieb, _|_ du weißt nicht wo er|blieb. _|
[K:G][M:3/8][Q:1/4=90]"^Allegretto non troppo"!mf! d{f}ed | g2 d | Bce | d3 | dcB | B>AA | eAA | %22
w: 1.~Ta- ge der|Won- ne,|kommt ihr so|bald?|Schenkt mir die|Son- * ne,|Hü- gel und|
w: 2.~Bläu- li- che|Fri- sche!|Him- mel und|Höh'!|Gol- de- ne|Fi- * sche|wim- meln im|
w: _ _ _|||||||
 A3 |!p! A>GF | c"^cresc."BA | edc | c3 |"^cresc." B>AG | dcB | =fed | d3 |!f! Gce |!>(! g3 | %33
w: Wald?|Reich- li- cher|flie- * ßen|Bäch- lein zu-|mal,|reich- li- cher|flie- * ßen|Bäch- lein zu-|mal.|Sind es die|Wie-|
w: See.|Bun- tes Ge-|fie- * der|rau- schet im|Hain;|himm- li- sche|Lie- * der|schal- len dar-|ein,|himm- li- sche|Lie-|
w: |||||||||||
 e3!>)! | z3 |!p! EAc |!>(! e3- | e2 z!>)! | z3 |!p! A{c}BA | e2 d | A{c}BA | (e2 d) | dcB | BAB | %45
w: sen?||Ist es das|Tal?|_||Reich- li- cher|flie- ßen|Bäch- lein zu-|mal. _|Sind es die|Wie- * sen,|
w: der||schal- len dar-|ein,|_||bun- tes Ge-|fie- der|rau- schet im|Hain; _|himm- li- sche|Lie- * der|
w: ||||||||||||
 cAB | G3 | z3 |!p! d3 | d2 F | (G2 B) | (A2 F) |"^cresc." d3 |[Q:1/4=80]"^rit." dBd | %54
w: ist es das|Tal?||Sind|es die|Wie- *|sen, _|ist|es _ das|
w: schal- len dar-|ein,||himm-|li- sche|Lie- *|der _|schal-|len _ dar-|
w: |||||||||
 !fermata!g3 :|[M:2/4]!p! BB/B/ | BB!<(! B{d}c/B/!<)! | e2!p! cA/c/ | BG AF/A/ | G2 |!pp! cA/c/ | %61
w: Tal?|3.~Un- ter des|Grü- nen blü- hen- der|Kraft na- schen die|Bie- nen sum- mend am|Saft,|na- schen die|
w: ein.|||||||
w: |||||||
 B G/B/ AF/A/ | G2 G"^cresc."G/G/ | BB!<(! BB/B/!<)! |!f! d2 fe/d/ | ^cc"^dim." dc/B/ | e2 d^c/B/ | %67
w: Bie- nen _ sum- mend am|Saft. Lei- se Be-|we- gung bebt in der|Luft, rei- zen- de|Re- gung, schlä- fern- der|Duft, rei- zen- de|
w: ||||||
w: ||||||
 ^AA B=A/G/ | F4- | F2!pp! B2- | (B2 A>G | F2) F>F | F4- | F4- | F z G"^cresc."G/G/ | %75
w: Re- gung, schlä- fern- der|Duft,|_ schlä-||* fern- der|Duft.|_|* Mäch- ti- ger|
w: ||||||||
w: ||||||||
 !>!B A/G/ !>!BA/G/ |!f! (G4 | g4-) | g z!pp! ee/e/ | dc BA/A/ | G4 | z4 | z2!mf! !>!ed/d/ | %83
w: rüh- ret _ bald sich ein|Hauch,|_|* doch er ver-|lie- ret gleich sich im|Strauch,||doch er ver-|
w: ||||||||
w: ||||||||
 cB A{c}B/A/ | A2 e"^dim."d/d/ | cB A{c}B/A/ | A2 A{c}B/A/ | A2"^cresc."!pp! (3A{c}B!<(!A | %88
w: lie- ret gleich sich im|Strauch, doch er ver-|lie- ret gleich sich im|Strauch, gleich sich im|Strauch, gleich sich im|
w: |||||
w: |||||
 A2!<)! ||[M:3/8]!f![Q:1/4=90]"^Tempo I" d{f}ed | g2 d | Bce | d3 | d!<(!cB | B>AA!<)! |!f! eAA | %96
w: Strauch.|A- ber zum|Bu- sen|kehrt er zu-|rück.|hel- fet, ihr|Mu- * sen,|tra- gen das|
w: ||||||||
w: ||||||||
 A3 |!p! A>GF | cBA | edc | c3 | B>"^cresc."AG | (dc)B | =fed | d3 |!f! Gce |!>(! g3 | e3!>)! | %108
w: Glück!|Sa- get, seit|ges- * tern|wie mir ge-|schah?|Sa- get, seit|ges- * tern|wie mir ge-|schah?|Lieb- li- che|Schwes-|tern,|
w: ||||||||||||
w: ||||||||||||
 z3 |!p! EAc |!>(! e3- | e2 z!>)! | z3 |!p! A{c}BA | e2 d | A{c}BA | (!>!e2 d) | dcB | BAB | cAB | %120
w: |Lieb- chen ist|da!|_||Sa- get, seit|ges- tern|wie mir ge-|schah? _|Lieb- li- che|Schwes- * tern,|Lieb- chen ist|
w: ||||||||||||
w: ||||||||||||
 G3 |!pp! G{B}AG | c2 G | G{B}AG | G3 | G{B}AG | c2 B | A2 G | G3 | z3 |"^dolce" d3 | d2 F | %132
w: da!|Sa- get, seit|ges- tern|wie mir ge-|schah,|wie mir ge-|schah, wie|mir ge-|schah?||Lieb-|li- che|
w: ||||||||||||
w: ||||||||||||
 (G2 B) | (A2 F) |!f! d3 |[Q:1/4=80]"^ritard." dBd | !fermata!g3 |] %137
w: Schwes- *|tern, _|Lieb-|chen _ ist|da!|
w: |||||
w: |||||
[K:Eb][M:4/4][Q:1/4=110]"^Andante non lento"!p! B2 | G2 E2 D3 E | G4 F2!<(! E2 | A2 G2 c3 c!<)! | %141
w: 1.~O|Tä- ler weit, o|Hö- hen, o|schö- ner grü- ner|
w: 2.~Im|Wal- de steht ge-|schrie- ben ein|stil- les ern- stes|
w: 3.~Bald|werd' ich dich ver-|las- sen, fremd|in die Frem- de|
 B6!f! B2 | e2 B2 A3 G | G4 F2!p! c2 | c2 F2 A3 D | E4 z2 G2 |"^cresc." G3 F F2 F2 | A4 G4 | %148
w: Wald, du|mei- ner Lust und|We- hen an-|dächt'- ger Auf- ent-|halt! Da|drau- ßen, stets be-|tro- gen,|
w: Wort vom|rech- ten Tun und|Lie- ben, und|was des Mensch- en|Hort. Ich|ha- be treu ge-|le- sen|
w: geh'n, auf|bunt- be- weg- ten|Gas- sen des|Le- bens Schau- spiel|seh'n. Und|mit- ten in dem|Le- ben|
!f! B2 B>B B2 B2 |!>(! =A6!>)!!pp! d2 | e2 B2 _A2 G2 | G4 F2 c2 | c3 F G2 A2 | G4 z2!f! B2 | %154
w: saus't die ge- schäft- ge|Welt; schlag'|noch ein- mal die|Bo- gen um|mich, du grü- nes|Zelt, schlag'|
w: die Wor- te, schlicht und|wahr, und|durch mein gan- zes|We- sen ward's|un- aus- sprech- lich|klar, und|
w: wird dei- nes Ernst's Ge-|walt mich|Ein- sa- men er-|he- ben, so|wird mein Herz nicht|alt, mich|
 B2 e2 g3 f | (e2 d2)"^dim." c2 =B2 | (.c2 z2!p! .F2) z2 | A6 D2 | !fermata!E8 |] %159
w: noch ein- mal die|Bo- * gen um|mich, du|grü- nes|Zelt!|
w: durch mein gan- zes|We- * sen ward's|un- aus-|sprech- lich|klar.|
w: Ein- sa- men er-|he- * ben, so|wird mein|Herz nicht|alt.|
[K:Ab][M:3/8][Q:1/4=60]"^Andante"!p! E | c2 B | A>!<(!Bc/d/!<)! | e2 f | fe"^dim."c/A/ |!p! c B2 | %165
w: Die|Nach- ti-|gall, sie war ent-|fernt, der|Früh- ling lockt sie|wie- der;|
w: ||||||
w: ||||||
 B"^cresc."d>c | B/d<fe/ | d2!f! e | a>ed/c/ | Bc z | z!p! (cB/)A/ | GA | z | z z E | e>dc/B/ | %175
w: was neu- es|hat sie nicht ge-|lernt, singt|al- te lie- be|Lie- der,|lie- * be|Lie- der.||Die|Nach- ti- gall, sie|
w: ||||||||||
w: ||||||||||
 A2 A | A3 | z/!p! E/ E/F/ G/A/ | B/G/ G/A/"^cresc." B/c/ | d/B/ B/c/ d/e/ |!f! fe/d/ c/B/ | %181
w: war ent-|fernt,|was neu- * es _|hat sie nicht _ ge- *|lernt, _ nicht _ ge- *|lernt, _ _ singt _|
w: ||||||
w: ||||||
 A/c<eA/ | d c2 | z3 | z z!pp! E | c2 B | A>!<(!Bc/d/!<)! | e2 f | fec/A/ | c B2 | B"^cresc."d>c | %191
w: al- te lie- be|Lie- der.||Die|Nach- ti-|gall, sie war ent-|fernt, der|Früh- ling lockt sie|wie- der;|was neu- es|
w: ||||||||||
w: ||||||||||
 B/d<fe/ | d2!p! d | c>BA/G/ | GFF |"^cresc." f>ed/c/ | cB!f!e | a>ed/c/ | Bc z | z!p! (cB/)A/ | %200
w: hat sie nicht ge-|lernt, singt|al- te lie- be|Lie- der, singt|al- te lie- be|Lie- der, singt|al- te lie- be|Lie- der,|lie- * be|
w: |||||||||
w: |||||||||
 G A2- | A3- | A3- | Ad>G |!p! GA !fermata!z |][K:D][M:2/4][Q:1/4=52]"^Adagio"!p! D>D | %206
w: Lie- der.|_||* lie- be|Lie- der.|Wann im|
w: ||||||
w: ||||||
 FF!<(! A>G!<)! | F2 F>F | G"^cresc."B d>d | dc!<(! Ac!<)! |!f! f>e dc | cB"^dim." BA | ^G>G GG | %213
w: letz- ten A- bend-|strahl gold'- ne|Wol- ken- ber- ge|stei- gen, gold'- ne|Wol- ken- ber- ge|stei- gen und wie|Al- pen sich er-|
w: |||||||
w: |||||||
!p! ^G2 A z | z4 | ^A!<(!A AA!<)! |!>(! ^A2 B!>)! z | z4 |!f! ^B"^cresc."B BB |!f!!>(! ^B2 c2!>)! | %220
w: zei- gen,||frag' ich oft mit|Trä- nen:||liegt wohl zwi- schen|je- nen|
w: |||||||
w: |||||||
 z2!pp! AA | (Af d)A | A2 G2 | F4 | z4 | F"^cresc."F FF | F2 B z | B!<(!B BB!<)! | %228
w: mein er-|sehn- * * tes|Ru- he-|tal?||frag' ich oft mit|Trä- nen:|liegt wohl zwi- schen|
w: ||||||||
w: ||||||||
!f! c2!>(! B2-!>)! | B2!pp! AA | (Af d)A | A2 G2 | F2- F z | z2!p! F>E | E2"^cresc." EF | GA c>B | %236
w: je- nen|_ mein er-|sehn- * * tes|Ru- he-|tal? _|liegt wohl|dort mein er-|sehn- tes Ru- he-|
w: ||||||||
w: ||||||||
 A2- A !fermata!z |!pp! F2 F2 | F2 B2 | E3 F | !fermata!D4 |] %241
w: tal? _|mein er-|sehn- tes|Ru- he-|tal?|
w: |||||
w: |||||
[M:4/4][Q:1/4=120]"^Allegro molto quasi Presto" z8 | z8 | z2!p! B2"^cresc." BcBc | d2 BB Bcde | %245
w: ||Durch schwan- * ken- de|Wip- fel schießt gol- * de- ner|
w: ||||
w: ||||
!f! f3 f f2 ed | d2 cB B2 AG | F8- | F8 | z2 F2 F2"^dim." Bd | c2 FF FBdB |!pp! !fermata!f8 | z8 | %253
w: Strahl, tief un- ter den|Gip- feln das neb- li- ge|Tal,|_|tief un- ter den|Gip- feln das neb- * li- ge|Tal.||
w: ||||||||
w: ||||||||
 z8 |!f! F4 B2 Bc | d2 Bc d2 e2 | f3!ff! d d2 Bd | dAAd dBBd | d2 A2 d3 d | f4 d3 d | f8 | %261
w: |Fern hallt es vom|Schlos- se, das Wald- horn|ruft, es wie- hern die|Ros- * se, es wie- * hern die|Ros- se, in die|Luft, in die|Luft,|
w: ||||||||
w: ||||||||
 z2!f! f2 f2 ed | d4 d2 z2 | z2 dd d2 cB | B4 z2!f! B^A | B4 c3 c | d4 z2!ff! de | f4 c3 d | B8 || %269
w: es wie- hern die|Ros- se,|in die Luft, in die|Luft, in die|Luft, in die|Luft, in die|Luft, in die|Luft!|
w: ||||||||
w: ||||||||
 z8 | z8 | z2!p! B2"^cresc." BcBc | d2 BB Bc de |!f! f3 f f2 ed | d2 cB B2 AG | F8- | F8 | %277
w: ||Bald Län- * der und|Se- en, bald Wol- * ken- *|zug tief schim- mernd zu|se- hen in schwin- deln- dem|Flug,|_|
w: ||||||||
w: ||||||||
 z2 F2 F2"^dim." Bd | c2 FF FBdB |!pp! !fermata!f8 | z8 | z8 |!f! F4 B2 Bc | d2 Bc d2 ee | %284
w: tief schim- mernd zu|se- hen in schwin- * deln- dem|Flug.|||Bald Dun- kel _|wie- der hüllt Rei- ter und|
w: |||||||
w: |||||||
 f3!ff! d d2 Bd | dAAd dB Bd | d4 d3 d | f4 d3 d | f8 | z2!f! f2 f2 ed | d4 d2 z2 | z2 d2 d2 cB | %292
w: Ross, o Lieb', o _|Lie- * be so lass _ mich _|los, lass' mich|los, lass mich|los!|o Lieb', o _|Lie- be,|so lass mich _|
w: ||||||||
w: ||||||||
 B4 z2!f! B^A | B4 c3 c | d4 z2!ff! de | f4 c3 d | B8 || z8 | z8 | z2!pp! BB BcBc | d2 BB Bc de | %301
w: los, lass mich|los, lass' mich|los, lass mich|los, lass mich|los!|||im- mer wei- * ter und|wei- ter die Klän- * ge _|
w: |||||||||
w: |||||||||
 f3 f f2 ed | d2 cB B2"^dim." AG | F8- | F8- | F2 z[Q:1/4=110]"^ritardando" F F2 Bd | c2 FF FBdB | %307
w: ziehn, durch Wäl- der und|Hei- den wo- hin, ach wo-|hin?|_|* durch Wäl- der und|Hei- den, wo- hin _ ach, wo-|
w: ||||||
w: ||||||
 !fermata!f7 ||[K:B]!pp![Q:1/4=120]"^a tempo" F | (F3 B) B3 c | d4 B4 | d4{f} (3e2 d2 e2 | f8 | %313
w: hin?|Er-|quick- * li- che|Fri- sche|süß- schau- ri- ge|Lust!|
w: ||||||
w: ||||||
"^cresc." f4 (3d2 c2 B2 | B4 G4 | d4 c3 B | (B4 A3)!f! F | (F3 B) B3 c | d4 B4 | d4 (3d2 c2 B2 | %320
w: Hoch flat- tern die|Bü- sche,|frei schlägt die|Brust. _ Er-|quick- * li- che|Fri- sche|süß- schau- ri- ge|
w: |||||||
w: |||||||
 g8 |!ff! f4 (3d2 c2 B2 | B4 (e2 c2) | B4 d3 c | B6!p! F2 | (F2 A2) c3 B | B4 A2 z2 | %327
w: Lust!|Hoch flat- tern die|Bü- sche, _|frei schlägt die|Brust. Er-|quick- * li- che|Fri- sche|
w: |||||||
w: |||||||
[Q:1/4=100]"^ritard." (F2 A2) (3c2 c2 B2 | (B4 !fermata!A3)!f![Q:1/4=120]"^a tempo" F | %329
w: süß- * schau- ri- ge|Lust! _ Er-|
w: ||
w: ||
 (F3 B) B3 c | d4 B4 | d4 (3d2 c2 B2 | g8 |!ff! f4 (3d2 c2 B2 | B4 (!>!e2 c2) | B4 d3 c | B4 z4 | %337
w: quick- * li- che|Fri- sche|süß- schau- ri- ge|Lust!|Hoch flat- tern die|Bü- sche, _|frei schlägt die|Brust.|
w: ||||||||
w: ||||||||
 z8 | z4!p!"^dim." B4 | d4 c2 B2 | f4 B2 B2 | (d4 c2) B2 |"^cresc." f8- | f4 z4 | z4!f! B4 | %345
w: |Und|wei- ter und|wei- ter die|Klän- * ge|ziehn,|_|und|
w: ||||||||
w: ||||||||
"^cresc." d4 c2 B2 | g8 | c4 z4 |!ff! f4 (3d2 c2 B2 | B4 (e2 c2) | B4 d3 c | !fermata!B8 |] %352
w: wei- ter und|wei-|ter,|hoch flat- tern die|Bü- sche, _|frei schlägt die|Brust.|
w: |||||||
w: |||||||
V:2
!mf! E E2 E | (E3 D2)!<(! F F2 F!<)! | E3- E2 G G2 G | A6 G3 | A2!p! E E2 E E2 E |"^cresc." F6 F3 | %6
w: 1.~Im Grün er-|wacht _ der fri- sche|Mut, _ wenn blau der|Him- mel|blickt. Im Grü- nen da geht|al- les|
w: 2.~Was such'st der|Mau- * ern en- gen|Raum, _ du tö- richt'|Men- schen-|kind? Komm, fühl' hier un- ter'm|grü- nen|
w: 3.~Wie hol- de|Kind- * lein spielt um|dich _ ihr O- dem|wun- der-|lieb, und nimmt all' dei- nen|Gram mit|
 B2!p! E E2 E E2 E |"^cresc." E6 ^D3 |!f! E3- E2!f! =G F2 G |!<(! F6 E3!<)! | %10
w: gut, im Grü- nen da geht|al- les|gut, _ was je das|Herz be-|
w: Baum, komm, fühl' hier un- ter'm|grü- nen|Baum, _ wie süß die|Lüf- te|
w: sich, und nimmt all' dei- nen|Gram mit|sich, _ du weißt nicht|wo er|
 =D3- D2 E"^dim." F2 F | E6 E3 | E2!p! E F2 E F2 E | D6- (D3 | C3-) !fermata!C2 |] %15
w: drückt, _ was je das|Herz be-|drückt, was je das Herz be-|drückt. _|_ _|
w: sind, _ wie süß die|Lüf- te|sind, wie süß die Lüf- te|sind. _|_ _|
w: blieb, _ du weißt nicht|wo er|blieb, du weißt nicht wo er|blieb. _|_ _|
[K:G][M:3/8]!mf! BAA | G2 G | GFF | G3 | GGG | G2 G | GGG | F3 |!p! D>DD |"^cresc." D2 D | FFF | %26
w: |||||||||||
w: |||||||||||
w: |||||||||||
 F3 |"^cresc." =F>FF | =F2 F | AG=F | =F3 |!f! EGc |!>(! e3 | c3!>)! | z3 |!p! CEA |!>(! c3- | %37
w: |||||||||||
w: |||||||||||
w: |||||||||||
 c2 z!>)! | z3 |!p! GGG | F2 G | GGG | (F2 G) | BAG | GFG | FFF | G3 |!pp! D{F}ED | G2 D | D{F}ED | %50
w: ||||||||||sind es die|Wie- sen,|ist es das|
w: ||||||||||himm- li- sche|Lie- der|schal- len dar-|
w: |||||||||||||
 D3 | D{F}ED |"^cresc." (D2 G) | (B2 A) | !fermata!G3 :|[M:2/4]!p! DD/D/ | ^DD!<(! DE/D/!<)! | %57
w: Tal?|ist es das|Tal? _|das _|Tal?|||
w: ein,|schal- len dar-|ein, _|dar- *|ein.|||
w: |||||||
 E2!p! AF/A/ | GE F^D/F/ | E2 |!pp! AF/A/ | G E/G/ F^D/F/ | E2 E"^cresc."E/E/ | ^EE!<(! EE/E/!<)! | %64
w: |||||||
w: |||||||
w: |||||||
!f! F2 d^c/B/ | ^AA"^dim." BA/B/ | ^A2 F2- |"^-" (FG F)E/D/ |!pp! (^C2 D2 | E2) D2- | D4 | D2 ^C2 | %72
w: ||* schlä-|* * * fern- der|Duft, _|_ schlä-||fern- der|
w: ||||||||
w: ||||||||
 D2"^cresc." DD/D/ | !>!F E/D/ !>!FE/D/ |"^cresc." D4- | D4 |!f! =F4 | =F3 F | E2!pp! EE/E/ | %79
w: Duft. Mäch- ti- ger|rüh- ret _ bald sich ein|Hauch,|_|bald|sich ein|Hauch, doch er ver-|
w: |||||||
w: |||||||
 EE =FF/F/ | E2 G"^cresc."G/G/ | ^GG GG/G/ |!f! A2- A z | z2!p! GG/G/ | G2 G z | z2!pp! GG/G/ | %86
w: lie- ret gleich sich im|Strauch, mäch- ti- ger|rüh- ret bald sich ein|Hauch, _|doch er ver-|lie- ret|gleich sich im|
w: |||||||
w: |||||||
 G2- G z | z4 | z2 ||[M:3/8]!f! AAA | G2 G | GFF | G3 | G!<(!GG | G2 A!<)! |!f! _BAG | F3 | %97
w: Strauch. _|||||||||||
w: |||||||||||
w: |||||||||||
!p! D>DD | D2 D | FFF | F3 | =F>"^cresc."FF | =F2 F | AG=F | =F3 |!f! EGc |!>(! e3 | c3!>)! | z3 | %109
w: ||||||||||||
w: ||||||||||||
w: ||||||||||||
!p! CEA |!>(! c3- | c2 z!>)! | z3 |!p! GGG | F2 G | GGG | (!>!F2 G) | BAG | GFG | FFF | G3 | %121
w: ||||||||||||
w: ||||||||||||
w: ||||||||||||
!pp! =FFF | E2 E | =FFF | E3 | =FFF | (E2 D) | C2 C | C3 |!pp! D{F}ED | G2 D | D{F}ED | D2 D | %133
w: ||||wie mir ge-|schah _|mir ge-|schah?|Lieb- li- che|Schwes- tern,|lieb- li- che|Schwes- tern,|
w: ||||||||||||
w: ||||||||||||
 D"^cresc."{F}ED | (D2 G) | (B2 A) | !fermata!G3 |][K:Eb][M:4/4]!p! B2 | G2 E2 D3 E | %139
w: Lieb- chen ist|da, _|ist _|da!|||
w: ||||||
w: ||||||
 E4 D2!<(! B,2 | E2 E2 F3 F!<)! | B6!f! A2 | G2 E2 E3 E | E4 E2!p! E2 | E2 E2 D3 B, | %145
w: ||||We- hen an-|dächt'- ger Auf- ent-|
w: ||||Lie- ben, und|was des Mensch- en|
w: ||||Gas- sen des|Le- bens Schau- spiel|
 B,2 B,2"^cresc." E2 D2 | (C4 F2) F2 | D4 G4 |!f! =E2 E>E E2 E2 |!>(! =A4 ^F4!>)! | %150
w: halt! Da drau- ßen,|stets _ be-|tro- gen,|saus't die ge- schäft- ge|Welt; schlag'|
w: Hort. Ich ha- be|treu _ ge-|le- sen|die Wor- te, schlicht und|wahr, und|
w: seh'n. Und mit- ten|in _ dem|Le- ben|wird dei- nes Ernst's Ge-|walt mich|
!pp! G2 _E2 E2 E2 | E4 E2 E2 | E3 D D2 D2 | E4 z2!f! F2 | G2 E2 D3 D | (G2 F2)"^dim." E2 F2 | %156
w: noch ein- mal die|Bo- gen um|||||
w: durch mein gan- zes|We- sen ward's|||||
w: Ein- sa- men er~~~~\-|he- ben, so|||||
!>(! E8-!>)! |!p! E2 D2 C2 B,2 | !fermata!B,8 |][K:Ab][M:3/8]!p! E | A2 E | C>!<(!EA/B/!<)! | %162
w: mich,|_ du grü- nes|Zelt!||||
w: un-|­ aus- spech- lich|klar.||||
w: wird|_ mein Herz nicht|alt.||||
 c2 d | dc"^dim."A/A/ |!p! A G2 | G"^cresc."B>A | G/B<dc/ | B2!f! d | c>cB/A/ | GA!p!E | A>ED/C/ | %171
w: |||||||* * singt|al- te lie- be|
w: |||||||||
w: |||||||||
 B,C | z | z z E | E>GA/A/ | AG F/G/ | A3 | z3 | z/ E/ E/F/"^cresc." G/A/ | B/G/ G/A/ B/c/ | %180
w: Lie- der.|||||||was neu- * es _|hat sie nicht _ ge- *|
w: |||||||||
w: |||||||||
!f! dc/B/ A/G/ | A>AG/A/ | E E2 | z/!p! C/EE | EE z |!pp! EAG | E>!<(!AA/A/!<)! | _G2 F | =GAA/A/ | %189
w: lernt, _ _ singt _|al- te lie- be|Lie- der,|singt lie- be|Lie- der.|Die Nach- ti-|gall, sie war ent-|fernt, der||
w: |||||||||
w: |||||||||
 A G2 | _G"^cresc."FF | F/F/B=A | B2!p! F | F>FF/=E/ | =EFF |"^cresc." F>AA/A/ | %196
w: |||||||
w: |||||||
w: |||||||
"^Lie -"!<(! A2!<)!!f!"^der," G | A>AB/A/ | GA z | z!p! EF | DC z/!pp! A/ | .A.G z | .F.E z | %203
w: |||lie- be|Lie- der, singt|al- te|lie- be,|
w: |||||||
w: |||||||
!<(! =D!<)!!>(!_D>!>)!D |!p! DC !fermata!z |][K:D][M:2/4]!p! D>D | DD!<(! D>D!<)! | D2 D>D | %208
w: lie- * be|Lie- der.|Wann im|letz- ten A- bend-|strahl gold'- ne|
w: |||||
w: |||||
 D"^cresc."G G>G | GG!<(! GG!<)! |!f! F>G A^A | ^AB"^dim." GF | E>E EE |!p! E2 E z | %214
w: Wol- ken- ber- ge|stei- gen, gold'- ne|Wol- ken- ber- ge|stei- gen und wie|Al- pen sich er-|zei- gen,|
w: ||||||
w: ||||||
!pp! =G!<(!G GG!<)! | G4- |!>(! G2 F!>)! z | A"^cresc."A AA | A4- |!>(! A2 ^G2-!>)! | G2!pp! =GG | %221
w: frag' ich oft mit|Trä-|­ nen:|liegt wohl zwi- schen|je-|* nen|_ mein er-|
w: |||||||
w: |||||||
 F3 F | F2 E2 | D4 | z4 | ^D"^cresc."D DD | ^D2 E z | ^E!<(!E FF!<)! |!f! ^G2 G2 | z2!pp! =GG | %230
w: sehn- tes|Ru- he-|tal?||frag' ich oft mit|Trä- nen:|liegt wohl zwi- schen|je- nen|mein er-|
w: |||||||||
w: |||||||||
 F3 F | F2 E2 | D2- D z | z2!p! D>D | C2"^cresc." CD | EF G>G | G2- G !fermata!z |!pp! F2 E2 | %238
w: sehn- tes|Ru- he-|tal? _|liegt wohl|dort mein er-|sehn- tes Ru- he-|tal? _|mein er-|
w: ||||||||
w: ||||||||
 ^D2 =D2 | D2 C2 | !fermata!A,4 |][M:4/4] z2!pp! F2 G2 EG | F2 DF GEEG | F3 F G2"^cresc." EG | %244
w: sehn- tes|Ru- he-|tal?|Durch schwan- ken- de|Wip- fel schießt gol- * den- er|Strahl, durch schwan- ken- de|
w: ||||||
w: ||||||
 F2 DF GEEG |!f! F3 F B2 BB | B2 ^AB F2 ED | C4 D4 | E4 D2 D2 | (C4"^dim." F4 | E4 D4 | %251
w: Wip- fel schießt gol- * de- ner|Strahl, tief un- ter den|Gip- feln das neb- li- ge|Tal, das|neb- li- ge|Tal. _|_ _|
w: |||||||
w: |||||||
!pp! !fermata!C8) | z8 | z8 |!f! F4 D2 DF | B2 DF B2 c2 | d3!ff! A B2 GB | AFFA BGGB | %258
w: |||||||
w: |||||||
w: |||||||
 A2 A2"^in___" _BG"^die___" GB | A4 _BG GB | A2!f! A2 A2 GF | F4 F2 z2 | z2 FF F2 ED | D8- | %264
w: |Luft, in _ die _|Luft, es wie- hern die|Ros- se,|in die Luft, in die|Luft,|
w: ||||||
w: ||||||
 D4 z2!f! GG | G4 B3 B | B4 z2!ff! BB | B4 ^A3 A | B8 || z2!pp! F2 G2 EG | F2 DF GE EG | %271
w: _|||||Bald Län- der und|Se- en, bald Wol- * ken- *|
w: |||||||
w: |||||||
 F3 F G2"^cresc." EG | F2 DF GE EG |!f! F3 F B2 BB | B2 ^AB F2 ED | C4 D4 | E4 D2 D2 | %277
w: zug, bald Län- der und|Se- en, bald Wol- * ken- *|zug tief schim- mernd zu|se- hen in schwin- deln- dem|Flug. in|schwin- deln- dem|
w: ||||||
w: ||||||
 (C4"^dim." F4 | E4 D4 |!pp! !fermata!C8) | z8 | z8 |!f! F4 D2 DF | B2 DF B2 cc | d3!ff! A B2 GB | %285
w: Flug. _|_ _||||||Ross, o Lieb', o _|
w: ||||||||
w: ||||||||
 AFFA BG GB | A4 _BG GB | A4 _BG GB | A2!f! A2 A2 GF | F4 F2 z2 | z2 F2 F2 ED | D8- | D4 z2!f! GG | %293
w: Lie- * be so lass _ mich _|los, lass _ mich _|los, lass _ mich _|los, o Lieb', o _|Lie- be,|so lass mich _|los,|_ lass mich|
w: ||||||||
w: ||||||||
 G4 B3 B | B4 z2!ff! BB | B4 ^A3 A | B8 || z2!pp! FF G2 EG | F2 DF GE EG | F4 G2 EG | F2 DF GE EG | %301
w: los, lass mich|los, lass mich|los, lass mich|los!|Im- mer wei- ter und|wei- ter die Klän- * ge _|ziehn, wei- ter und|wei- ter die Klän- * ge _|
w: ||||||||
w: ||||||||
 F3 F B2 BB | B2 ^AB F2"^dim." ED | C4 D4 | E4 D3 D | (C4 F4 | E4 D4 | !fermata!C7) ||[K:B]!pp! D | %309
w: ziehn, durch Wäl- der und|Hei- den wo- hin, ach wo-|hin, wo-|hin, ach wo-|hin? _|_ _|||
w: ||||||||
w: ||||||||
 (D3 F) F3 B | B4 F4 | F4 (3=G2 F2 G2 | F8 |"^cresc." F4 (3F2 E2 D2 | D4 D4 | ^E4 E3 E | F7!f! =E | %317
w: ||||||||
w: ||||||||
w: ||||||||
 (D3 F) F3 B | B4 F4 | =A4 (3A2 A2 A2 | G8 |!ff! B4 (3F2 E2 D2 | (D2 !>!G4) G2 | F4 A3 A | %324
w: |||||||
w: |||||||
w: |||||||
 B6!p! F2 | F8- | F4 F2 =G2 | F8 | !fermata!E7!f! E | (^D3 F) F3 B | B4 F4 | =A4 (3A2 A2 A2 | G8 | %333
w: * Er-|quick-|* li- che|Fri-|sche! *|||||
w: |||||||||
w: |||||||||
!ff! B4 (3F2 E2 D2 | (D2 !>!G4) G2 | F4 A3 A | B3!pp! F =G2 EG | F2 DF =GE EG | F4"^dim." =G2 EG | %339
w: |||Brust. Und wei- ter und|wei- ter die Klän- * ge _|ziehn, wei- ter und|
w: ||||||
w: ||||||
 F2 DF =GE EG | F4 =G2 EG | (F4 =G4) | F3!f! B"^cresc." B2 B2 | B8- | B8- | B3 B B2 B2 | B8- | %347
w: wei- ter die Klän- * ge _|ziehn, wei- ter und|wei- *|ter die Klän- ge|ziehn,|_|* die Klän- ge|ziehn|
w: ||||||||
w: ||||||||
 B4 z4 |!ff! B4 (3F2 E2 D2 | (D2 G4) G2 | F4 A3 F | !fermata!F8 |] %352
w: _|hoch flat- tern die|Bü- * sche|frei schlägt die|Brust.|
w: |||||
w: |||||
V:3
!mf! c c2 c | (c3 d2)!<(! d d2 d!<)! | d3- d2 d B2 d | c3- (c2 e) (d2 e) | c2!p! c c2 c c2 c | %5
w: 1.~Im Grün er-|wacht _ der fri- sche|Mut, _ wenn blau der|Him- * * mel _|blickt. Im Grü- nen da geht|
w: 2.~Was such'st der|Mau- * ern en- gen|Raum, _ du tö- richt'|Men- * * schen- *|kind? Komm, fühl' hier un- ter'm|
w: 3.~Wie hol- de|Kind- * lein spielt um|dich _ ihr O- dem|wun- * * der- *|lieb, und nimmt all' dei- nen|
"^cresc." ^d6 d3 | e2!p! B B2 B B2 B |"^cresc." c6 A3 |!f! (c3 B2)!f! ^A B2 e | %9
w: al- les||||
w: grü- nen||||
w: Gram mit||||
!<(! (=d3 e3) ^A3!<)! | B3- B2 ^A"^dim." B2 d | c6 d3 | c2!p! c d2 c d2 c | (B6 e3-) | %14
w: |||||
w: |||||
w: |||||
 e3- !fermata!e2 |][K:G][M:3/8]!mf! dcc | B2 B | ddd | d3 | dd^d | ^d>ee | eee | =d3 |!p! c>cc | %24
w: |1.~Ta- ge der|Won- ne,|kommt ihr so|bald?|Schenkt mir die|Son- * ne,|Hü- gel und|Wald?|Reich- li- cher|
w: |2.~Bläu- li- che|Fri- sche!|Him- mel und|Höh'!|Gol- de- ne|Fi- * sche|wim- meln im|See.|Bun- tes Ge-|
w: ||||||||||
"^cresc." c2 c | ccc | c3 |"^cresc." d>cB | =fed | BBB | B3 | z3 | z3 |!f! Gce |!>(! g3 | e3!>)! | %36
w: flie- ßen|Bäch- lein zu-|mal,|reich- li- cher|flie- * ßen|Bäch- lein zu-|mal.|||Sind es die|Wie-|sen?|
w: fie- der|rau- schet im|Hain;|himm- li- sche|Lie- * der|schal- len dar-|ein,|||himm- li- sche|Lie-|der|
w: ||||||||||||
 z3 |!p! EAc |!>(! e3- | e3!>)! | z3 |!p! eee | (c2 d) | dee | dcB | Acd | B3 |!pp! ccc | B2 B | %49
w: |Ist es das|Tal?|_||Bäch- lein zu-|mal. _|Sind es die|Wie- * sen,|ist es das|Tal?|sind es die|Wie- sen,|
w: |schal- len dar-|ein,|_||schal- len dar-|ein, _|himm- li- sche|Lie- * der|schal- len dar-|ein,|himm- li- sche|Lie- der|
w: |||||||||||||
 ccc | B3 | ccc |"^cresc." (B2 d) | (d2 c) | !fermata!B3 :|[M:2/4]!p! BB/B/ | AA!<(! AA/A/!<)! | %57
w: ist es das|Tal?|ist es das|Tal? _|das _|Tal?|3.~Un- ter des|Grü- nen blü- hen- der|
w: schal- len dar-|ein,|schal- len dar-|ein, _|dar- *|ein.|||
w: ||||||||
 G2 z2 |!p! eB/e/ cA | BG/B/ | A2 |!pp! eB cA | B2 e"^cresc."e/e/ | =dd!<(! dd/d/!<)! |!f! (B2 d2 | %65
w: Kraft|na- schen die Bie- nen|sum- mend am|Saft,|sum- * mend am|Saft. Lei- se Be-|we- gung bebt in der|Luft, _|
w: ||||||||
w: ||||||||
 f2)"^dim." fe/d/ | ^cc B^A/B/ | e2 d^c/B/ |!pp! (^A2"^____________" B2 | %69
w: _ rei- zen- de|Re- gung, schlä- fern- der|Duft, schlä- fern- der|Duft, *|
w: ||||
w: ||||
"^________________________" ^c2 B2-) | B4 |"^schlä -" B2"^fern -" ^A>"^der"A | B2"^cresc." BB/B/ | %73
w: ||||
w: ||||
w: ||||
 !>!d ^c/B/ !>!dc/B/ |"^cresc.""^________________________________________" B4- | B4- | %76
w: |||
w: |||
w: |||
 B2!f! BB/B/ | !>!d =c/B/ !>!dc/B/ | e2!pp! GG/G/ | GG dB/B/ | c2 e"^cresc."e/e/ | dd =fe/d/ | %82
w: * Mäch- ti- ger|rüh- ret _ bald sich ein|Hauch, doch er ver-|lie- ret gleich sich im|Strauch, mäch- ti- ger|rüh- ret bald sich ein|
w: ||||||
w: ||||||
!f! e2- e z | z2!p! ee/e/ | e2 A z | z2!pp! ee/e/ | (e2 A) z | z4 | z2 ||[M:3/8]!f! fff | d2 d | %91
w: Hauch, _|doch er ver-|lie- ret|gleich sich im|Strauch. _|||A- ber zum|Bu- sen|
w: |||||||||
w: |||||||||
 ddd | d3 | d!<(!d^d | ^d>ee!<)! |!f! gfe | d3 |!p! c>cc | c2 c | ccc | c3 | d>"^cresc."cB | =fed | %103
w: kehrt er zu-|rück.|hel- fet, ihr|Mu- * sen,|tra- gen das|Glück!|Sa- get, seit|ges- tern|wie mir ge-|schah?|Sa- get, seit|ges- * tern|
w: ||||||||||||
w: ||||||||||||
 BBB | B3 | z3 | z3 |!f! Gce |!>(! g3 | e3!>)! | z3 |!p! EAc |!>(! e3- | e3!>)! | z3 | eee | %116
w: wie mir ge-|schah?|||Lieb- li- che|Schwes-|tern,||Lieb- chen ist|da!|_||wie mir ge-|
w: |||||||||||||
w: |||||||||||||
 (!>!c2 d) | dee | dcB | Acd | B3 | z3 |"^dolce" g3 | g2 B | (c2 e) | (d2 B) | (g2 =f) | e2 _e | %128
w: schah? _|Lieb- li- che|Schwes- * tern,|Lieb- chen ist|da!||Lieb-|li- che|Schwes- *|tern, _|Lieb- *|chen ist|
w: ||||||||||||
w: ||||||||||||
"^____" (d3 |"^_____" c3) |!pp!"^Schwes -" B2"^tern" B | ccc | B2 B | c"^cresc."cc |!f! (B2 d) | %135
w: da!|||||||
w: |||||||
w: |||||||
 (d2 c) | !fermata!B3 |][K:Eb][M:4/4]!p! B2 | G2 E2 D3 E | B4 A2!<(! G2 | c2 B2 d3 d!<)! | %141
w: ||1.~O|Tä- ler weit, o|Hö- hen, o|schö- ner grü- ner|
w: ||2.~Im|Wal- de steht ge-|schrie- ben ein|stil- les ern- stes|
w: ||3.~Bald|werd' ich dich ver-|las- sen, fremd|in die Frem- de|
 e6!f! d2 | e2 e2 c3 c | c4 c2!p! A2 | F2 F2 F3 A | G2 G2"^cresc." c2 B2 | (=A4 B2) B2 | =B4 c4 | %148
w: Wald, du|mei- ner Lust und||||||
w: Wort vom|rech- ten Tun und||||||
w: geh'n, auf|bunt- be- weg- ten||||||
!f! ^c2 c>c c2 c2 |!>(! d4 =c4!>)! |!pp! B2 B2 B2 B2 | c4 c2 F2 | A3 A G2 F2 | E2 z2 z2!f! d2 | %154
w: ||||||
w: ||||||
w: ||||||
 e2 B2 =B3 B | =B4"^dim." c2 d2 | (.c2 z2!p! .c2) z2 | F6 A2 | !fermata!G8 |][K:Ab][M:3/8] z | z3 | %161
w: ||mich, du|grü- nes|Zelt!|||
w: ||un- aus-|sprech- lich|klar.|||
w: ||wird mein|Herz nicht|alt.|||
 z3 | z3 | z3 | z3 | z3 | z3 | z3 | z3 | z3 | z3 | z2 |!p! E | c2 B | A>!<(!Bc/d/!<)! | e2 f | %176
w: |||||||||||Die|Nach- ti-|gall, sie war ent-|fernt, der|
w: |||||||||||||||
w: |||||||||||||||
 fe"^dim."c/A/ |!p! c B2 | Bd>"^cresc."c | B/d<fe/ | d2!f! e | a>ed/c/ | Bc z | z!p! (cB/)A/ | %184
w: Früh- ling lockt sie|wie- der;|was neu- es|hat sie nicht ge-|lernt, singt|al- te lie- be|Lie- der,|lie- * be|
w: ||||||||
w: ||||||||
 GA z |!pp! Eed | c>!<(!de/f/!<)! | c2 d | dce/=d/ | =d e2 | B"^cresc."B=A | B/B/_dc | d2!p! B | %193
w: Lie- der.|Die Nach- ti-|gall, sie war ent-|fernt, der|Früh- ling lockt sie|wie- der;|was neu- es|hat sie nicht ge-|lernt, singt|
w: |||||||||
w: |||||||||
 A>dc/B/ | BAA |"^cresc." d>cd/e/ |!<(! (f2!<)!!f! e) | e2 f | dc!p!e | a>ed/c/ | BA z/!pp! f/ | %201
w: al- te lie- be|Lie- der, singt|al- te lie- be|Lie- *|der, singt|lie- be, singt|al- te lie- be|Lie- der, singt|
w: ||||||||
w: ||||||||
 .f.e z | .d.c z |!<(! B2-!<)!!>(! B/B/!>)! |!p! BA !fermata!z |][K:D][M:2/4]!p! F>F | %206
w: al- te|lie- be,|lie- * be|Lie- der.|Wann im|
w: |||||
w: |||||
 AA!<(! =c>B!<)! | A2 =c>c | B"^cresc."B _B>B | _BA!<(! AA!<)! |!f! A>c dd | dd"^dim." dd | %212
w: letz- ten A- bend-|strahl gold'- ne|Wol- ken- ber- ge|stei- gen, gold'- ne|Wol- ken- ber- ge|stei- gen und wie|
w: ||||||
w: ||||||
 d>d dd |!p! d2 c z |!pp! e!<(!e ee!<)! | e4- |!>(! e2 ^d!>)! z | f"^cresc."f ff | f4- | %219
w: Al- pen sich er-|zei- gen,|frag' ich oft mit|Trä-|­ nen:|liegt wohl zwi- schen|je-|
w: |||||||
w: |||||||
!>(! f2 ^e2-!>)! | e2!pp! =ee | A3 d | d2 c2 | d4 | =c"^cresc."c cc | =c2 B z | B!<(!B BB!<)! | %227
w: * nen|_ mein er-|sehn- tes|Ru- he-|tal?|frag' ich oft mit|Trä- nen:|liegt wohl zwi- schen,|
w: ||||||||
w: ||||||||
!f! d3 d | c2 c2 | z2!pp! ee | A3 d | d2 c2 | A2!>(! dc!>)! | BA!p! ^G>G | A2"^cresc." AA | %235
w: zwi- schen|je- nen|mein er-|sehn- tes|Ru- he-|tal? mein er-|sehn- tes Ru- he-|tal? mein er-|
w: ||||||||
w: ||||||||
 AA e>d | c2- c !fermata!z |!pp! A2 ^A2 | B2 E2 | E2 G2 | !fermata!F4 |][M:4/4] z2!pp! d2 e2 ce | %242
w: sehn- tes Ru- he-|tal? _|mein er-|sehn- tes|Ru- he-|tal?|Durch schwan- ken- de|
w: |||||||
w: |||||||
 d2 Bd ecce | d3 d e2"^cresc." ee | d2 dd eBBe |!f! d3 d g2 gg | f2 ed d2 cB | ^A4 B4 | ^A4 B2 B2 | %249
w: Wip- fel schießt gol- * den- er|Strahl, durch schwan- ken- de|Wip- fel schießt gol- * de- ner|Strahl, tief un- ter den|Gip- feln das neb- li- ge|Tal, das|neb- li- ge|
w: |||||||
w: |||||||
 (^A4"^dim." d4 | ^A4 B4 |!pp! !fermata!c8) |!f! F4 B2 Bc | d2 Bc d2 e2 | f8 | z2 z!f! f f2 g2 | %256
w: Tal. _|_ _||Fern hallt es vom|Schlos- se, das Wald- horn|ruft,|das Wald- horn|
w: |||||||
w: |||||||
 f3!ff! f g2 dg | fddf gddg | f2 f2 g3 g | d4 g3 g | d2!f! f2 f2 ed | d4 d2 z2 | z2 dd d2 cB | %263
w: ruft, es wie- hern die|Ros- * se, es wie- * hern die|Ros- se, in die|Luft, in die|Luft, es wie- hern die|Ros- se,|in die Luft, in die|
w: |||||||
w: |||||||
 B8- | B4 z2!f! dc | d4 e3 e | f4 z2!ff! fe | d4 e3 f | d8 || z2!pp! d2 e2 ce | d2 Bd ec ce | %271
w: Luft,|_ in die|Luft, in die|Luft, in die|Luft, in die|Luft!|Bald Län- der und|Se- en, bald Wol- * ken- *|
w: ||||||||
w: ||||||||
 d3 d e2"^cresc." ee | d2 dd eB Be |!f! d3 d g2 gg | f2 ed d2 cB | ^A4 B4 | ^A4 B2 B2 | %277
w: zug, bald Län- der und|Se- en, bald Wol- * ken- *|zug tief schim- mernd zu|se- hen in schwin- deln- dem|Flug. in|schwin- deln- dem|
w: ||||||
w: ||||||
 (^A4"^dim." d4 | ^A4 B4 |!pp! !fermata!c8) |!f! F4 B2 Bc | d2 Bc d2 ee | f8 | z2 z f f2 gg | %284
w: Flug. _|_ _||Bald Dun- kel _|wie- der hüllt Rei- ter und|Roß,|hüllt Rei- ter und|
w: |||||||
w: |||||||
 f3!ff! f g2 dg | fddf gd dg | f4 g3 g | d4 g3 g | d2!f! f2 f2 ed | d4 d2 z2 | z2 d2 d2 cB | B8- | %292
w: ||||||||
w: ||||||||
w: ||||||||
 B4 z2!f! dc | d4 e3 e | f4 z2!ff! fe | d4 e3 f | d8 || z2!pp! dd e2 ce | d2 Bd ec ce | d4 e2 ee | %300
w: los, lass mich|los, lass mich|los, lass mich|los, lass mich|los!|Im- mer wei- ter und|wei- ter die Klän- * ge _|ziehn, wei- ter und|
w: ||||||||
w: ||||||||
 d2 dd eB Be | d3 d g2 gg | f2 ed d2"^dim." cB | ^A4 B4 | ^A4 B3 B | (^A4 d4 | ^A4 B4 | %307
w: wei- ter die Klän- * ge _|ziehn, durch Wäl- der und|Hei- den wo- hin, ach wo-|hin, wo-|hin, ach wo-|hin? _|_ _|
w: |||||||
w: |||||||
 !fermata!c7) ||[K:B]!pp! B | (B3 d) d3 e | f4 d4 | B4 (3B2 B2 B2 | d8 |"^cresc." B4 (3A2 A2 A2 | %314
w: |Er-|quick- * li- che|Fri- sche|süß- schau- ri- ge|Lust!|Hoch flat- tern die|
w: |||||||
w: |||||||
 B4 B4 | B4 B3 B | (d4 c3)!f! A | (B3 d) d3 e | f4 d4 | B4 (3B2 B2 B2 | e8 |!ff! d4 (3A2 A2 A2 | %322
w: Bü- sche,|frei schlägt die|Brust. _ Er-|quick- * li- che|Fri- sche|süß- schau- ri- ge|Lust!|Hoch flat- tern die|
w: ||||||||
w: ||||||||
 B4 (B2 e2) | d4 f3 e | d6!p! A2 | (A2 c2) e3 =d | c4 c2 B2 | (A2 c2) e2 =d2 | !fermata!c7!f! A | %329
w: Bü- sche, _|frei schlägt die|Brust. Er-|quick- * li- che|Fri- sche süß-|schau- * ri- ge|Lust! Er-|
w: |||||||
w: |||||||
 (B3 ^d) d3 e | f4 d4 | B4 (3B2 B2 B2 | B8 |!ff! d4 (3A2 A2 A2 | B4 (!>!B2 e2) | d4 f3 e | %336
w: quick- * li- che|Fri- sche|süß- schau- ri- ge|Lust!|Hoch flat- tern die|Bü- sche, _|frei schlägt die|
w: |||||||
w: |||||||
 d3!pp! d e2 ce | d2 Bd ec ce | d4"^dim." e2 ee | d2 dd e2 e2 | d4 z4 | (B4 e4) |"^cresc." d8- | %343
w: Brust. Und wei- ter und|wei- ter die Klän- * ge _|ziehn, wei- ter und|wei- ter die Klän- ge|ziehn,|wei- *|ter|
w: |||||||
w: |||||||
 d3!f!"^cresc." d d2 d2 | d8- | d3 d d2 d2 | c8- | c4 z4 |!ff! d4 (3A2 A2 A2 | B4 (B2 e2) | %350
w: * die Klän- ge|ziehn,|_ die Klän- ge|ziehn|_|hoch flat- tern die|Bü- sche _|
w: |||||||
w: |||||||
 d4 f3 e | !fermata!d8 |] %352
w: frei schlägt die|Brust.|
w: ||
w: ||
V:4
!mf! A, A,2 A, | A,3- A,2!<(! A, A,2 A,!<)! | A,3- A,2 A, A,2 A, | (A,3 E,3) E,3 | %4
w: ||||
w: ||||
w: ||||
 A,,2!p! A, A,2 A, A,2 A, |"^cresc." A,6 A,3 | G,2!p! G, G,2 G, G,2 G, |"^cresc." F,6 F,3 | %8
w: ||||
w: ||||
w: ||||
!f! E,3- E,2!f! C, =D,2 E, |!<(! F,6 F,3!<)! | B,,3- B,,2 C,"^dim." D,2 D, | E,6 E,3 | %12
w: ||||
w: ||||
w: ||||
 A,2!p! A,, A,,2 A,, A,,2 A,, | A,,6- A,,3- | A,,3- !fermata!A,,2 |][K:G][M:3/8]!mf! G,G,G, | %16
w: ||||
w: ||||
w: ||||
 G,2 G, | G,A,C | B,3 | B,,B,,B,, | B,,>C,C, | ^C,C,C, | D,3 |!p! F,>E,D, | A,"^cresc."G,F, | %25
w: |||||||||
w: |||||||||
w: |||||||||
 CB,A, | A,3 |"^cresc." G,>G,G, | G,2 G, | G,G,G, | G,3 | z3 | z3 |!f! E,G,C |!>(! E3 | C3!>)! | %36
w: |||||||||||
w: |||||||||||
w: |||||||||||
 z3 |!p! C,E,A, |!>(! C3!>)! |!p! CCC | C2 B, | CCC | (C2 B,) | B,,C,^C, | D,2 D, | D,D,D, | G,3 | %47
w: |||Reich- li- cher|flie- ßen|Bäch- lein zu-|mal. _|_ _ _||||
w: |||himm- li- sche|Lie- der|schal- len dar-|ein, _|_ _ _||||
w: |||||||||||
!pp! G,,G,,G,, | G,,2 G,, | G,,G,,G,, | G,,3 | G,,G,,G,, |"^cresc." (G,,2 B,,) | D,3 | %54
w: |||||||
w: |||||||
w: |||||||
 !fermata!G,,3 :|[M:2/4]!p! G,G,/G,/ | F,F,!<(! F,F,/F,/!<)! | E,4 | E,2 E,>E, | E,2 | E,2 | %61
w: ||||na- schen die|Bie-|nen|
w: |||||||
w: |||||||
!pp! E,2 E,E, | E,2 E,"^cresc."E,/E,/ | G,G,!<(! G,G,/G,/!<)! |!f! F,4- |"^dim." F,4- | %66
w: |||Luft,|_|
w: |||||
w: |||||
 F, z F,>F, | F,4- | F,2!pp! !>!B,A,/G,/ | F,F, !>!G,F,/E,/ | (D,2 E,2 | F,4 | B,,4-) | B,,2 z2 | %74
w: * in der|Luft,|_ rei- zen- de|Re- gung, schlä- fern- der|Duft. _|_|||
w: ||||||||
w: ||||||||
 z4 | z4 | z2!f! G,G,/G,/ | !>!B, A,/G,/ !>!B,A,/G,/ | C2!pp! C,C,/C,/ | C,C, C,C,/C,/ | %80
w: ||||||
w: ||||||
w: ||||||
 C,2 C"^cresc."C/C/ | B,B, DC/B,/ |!f! C2- C z | z2!p! C,C,/C,/ | C,2 C, z | z2!pp! C,C,/C,/ | %86
w: ||||||
w: ||||||
w: ||||||
 C,2- C, z | z4 | z2 ||[M:3/8]!f! CCC | B,2 B, | B,A,C | B,3 | B,,!<(!B,,B,, | B,,>C,C,!<)! | %95
w: |||||||||
w: |||||||||
w: |||||||||
!f! ^C,C,C, | D,3 |!p! F,>E,D, | A,G,F, | CB,A, | A,3 | G,>"^cresc."G,G, | G,2 G, | G,G,G, | G,3 | %105
w: ||||||||||
w: ||||||||||
w: ||||||||||
 z3 | z3 |!f! E,G,C |!>(! E3 | C3!>)! | z3 |!p! C,E,A, |!>(! C3!>)! |!p! CCC | C2 B, | CCC | %116
w: ||||||||Sa- get, seit|ges- tern|wie mir ge-|
w: |||||||||||
w: |||||||||||
 (!>!C2 B,) | B,,C,^C, | D,2 D, | D,D,D, | G,3 |!pp! G,,G,,G,, | G,,2 G,, | G,,G,,G,, | G,,3 | %125
w: schah? _|_ _ _||||Sa- get, seit|ges- tern|wie mir ge-|schah?|
w: |||||||||
w: |||||||||
 G,,G,,G,, | G,,3- | G,,3- | G,,3 |!pp! G,,G,,G,, | G,,2 G,, | G,,G,,G,, | G,,2 G,, | %133
w: wie mir ge-|schah?|_||Lieb- li- che|Schwes- tern,|lieb- li- che|Schwes- tern,|
w: ||||||||
w: ||||||||
 G,,"^cresc."G,,G,, |!f! (G,,2 B,,) | D,3 | !fermata!G,,3 |][K:Eb][M:4/4]!p! B,2 | G,2 E,2 D,3 E, | %139
w: Lieb- chen ist|da, _|ist|da!|||
w: ||||||
w: ||||||
 B,,4 B,,2!<(! B,,2 | B,,2 B,,2 A,3 A,!<)! | G,6!f! F,2 | E,2 G,2 C3 B, | A,4 A,2!p! A,2 | %144
w: ||||We- hen an-|
w: ||||Lie- ben, und|
w: ||||Gas- sen des|
 A,,2 A,,2 B,,3 B,, | E,4 z4 | z2"^cresc." E,2 D,2 D,2 | F,3 F, E,2 E,2 |!f! G,2 G,>G, G,2 G,2 | %149
w: dächt'- ger Auf- ent-|halt!|Da drau- ßen,|stets be- tro- gen,||
w: was des Mensch- en|Hort.|Ich ha- be|treu ge- le- sen||
w: Le- bens Schau- spiel|seh'n.|Und mit- ten|in dem Le- ben||
!>(! ^F,4 D,4!>)! |!pp! G,2 G,,2 G,,2 G,,2 | _A,,8 | B,,4 z2 B,,2 |"^cresc." E,2 G,2 B,3 A, | %154
w: |* * * die|Bo-|gen, schlag'|noch ein- mal die|
w: |* * * zes|We-|sen, und|durch mein gan- zes|
w: |* * * er~~~~\-|he-|ben, mich|Ein- sa- men er-|
!f! G,8 | G,6"^dim." G,,2 | (.C,2 z2!p! .A,,2) z2 | B,,6 B,,2 | !fermata![E,,E,]8 |] %159
w: Bo-|gen um||||
w: We-|sen ward's||||
w: he-|ben, so||||
[K:Ab][M:3/8] z | z3 | z3 | z3 | z3 | z3 | z3 | z3 | z3 | z3 | z3 | z3 | z2 |!p! E, | A,2 E, | %174
w: |||||||||||||||
w: |||||||||||||||
w: |||||||||||||||
 C,>!<(!E,A,/B,/!<)! | C2 D | DC"^dim."A,/A,/ |!p! A, G,2 | G,B,>"^cresc."A, | G,/B,<DC/ | %180
w: ||||||
w: ||||||
w: ||||||
 B,2!f! D | C>CB,/A,/ |!p! G,A,E, | A,>E,D,/C,/ | B,,C, z |!pp! E,E,E, | A,,>!<(!A,A,/A,/!<)! | %187
w: ||Lie- der, singt|al- te lie- be|Lie- der.|||
w: |||||||
w: |||||||
 A,2 A, | A,A,A,/F,/ | E, E,2 | E,"^cresc."F,E, | D,/B,,/F,F, | B,2!p! B,, | C,>C,C,/C,/ | C,D,D, | %195
w: ||||||||
w: ||||||||
w: ||||||||
"^cresc." D,>E,F,/E,/ |!<(! (=D,2!<)!!f! _D,) | C,2 D,/D,/ | E,A, z | z!p! C,D, | E,A,, z | z3 | %202
w: ||* lie- be|Lie- der,|lie- be|Lie- der.||
w: |||||||
w: |||||||
 z3 | z E,>E, |!p! E,A,, !fermata!z |][K:D][M:2/4]!p! D,>D, | D,D,!<(! D,>D,!<)! | D,2 D,>D, | %208
w: |lie- be|Lie- der.||||
w: ||||||
w: ||||||
 D,"^cresc."D, D,>D, | D,D,!<(! D,D,!<)! |!f! D,>E, F,F, | F,G,"^dim." G,,A,, | B,,>B,, B,,B,, | %213
w: |||||
w: |||||
w: |||||
!p! A,,2 A,, z | z4 | z4 | z4 | z4 | z4 | z4 |!pp! C,3 C, | D,2 D,2 | A,,3 ^A,, | B,,4 | %224
w: |||||||mein er-|sehn- tes|Ru- he-|tal?|
w: |||||||||||
w: |||||||||||
 =A,"^cresc."A, A,A, | A,2 A, z | A,!<(!A, ^G,G,!<)! |!f! (=G,2 F,2) | ^E,2- E, z |!pp! C,3 C, | %230
w: frag' ich oft mit|Trä- nen:|liegt wohl zwi- schen|je- *|­nen _|mein er-|
w: ||||||
w: ||||||
 D,2 D,2 | A,,3 A,, | D,2 z2 | z4 | z2"^cresc." G,F, | E,D, A,,>A,, | A,,2- A,, !fermata!z | %237
w: sehn- tes|Ru- he-|tal?||mein er-|sehn- tes Ru- he-|tal? _|
w: |||||||
w: |||||||
!pp! D,2 C,2 | B,,2 ^G,,2 | A,,2 A,,2 | !fermata!D,4 |][M:4/4] z2!pp! B,2 B,2 B,B, | %242
w: mein er-|sehn- tes|Ru- he-|tal?||
w: |||||
w: |||||
 B,2 B,B, B,2 B,B, | B,3 B, B,2"^cresc." B,B, | B,2 B,B, B,2 B,B, | B,4 z4 | z8 | %247
w: |||||
w: |||||
w: |||||
 z2!f! F,2 F,2 B,D | C2 F,F, F,B,DB, |"^dim." F,8- | F,8- |!pp! !fermata!F,8 |!f! F,4 D,2 D,F, | %253
w: tief un- ter den|Gip- feln das neb- * li- ge|Tal,|_|||
w: ||||||
w: ||||||
 B,2 D,F, B,2 C2 | D8 | z2 z!f! B, B,2 A,2 | D8- | D2 D,2 D,2 D,D, | D4 D,4- | D,2 D,D, D,2 D,D, | %260
w: |||ruft,|_ es wie- hern die|Ros- se,|_ in die Luft, in die|
w: |||||||
w: |||||||
 D6 z2 | z2!f! D2 D2 CB, | B,4 B,2 z2 | z2 B,B, B,2 A,G, | G,4 z2!f! G,G, | G,4 G,3 G, | %266
w: Luft,|es wie- hern die|Ros- se,|in die Luft, in die|Luft, * *||
w: ||||||
w: ||||||
 F,4 z2!ff! F,F, | F,4 F,3 F, | B,,8 || z2!pp! B,2 B,2 B,B, | B,2 B,B, B,2 B,2 | %271
w: |||||
w: |||||
w: |||||
 B,3 B, B,2"^cresc." B,B, | B,2 B,B, B,2 B,2 | B,4 z4 | z8 | z2!f! F,2 F,2 B,D | C2 F,F, F,B,DB, | %277
w: ||||tief schim- mernd zu|se- hen in schwin- * deln- dem|
w: ||||||
w: ||||||
"^dim." F,8- | F,8- |!pp! !fermata!F,8 |!f! F,4 D,2 D,F, | B,2 D,F, B,2 CC | D8 | %283
w: Flug.|_|||||
w: ||||||
w: ||||||
 z2 z B, B,2 A,A, | D8- | D2 D,2 D,2 D,2 | D4 D,4- | D,2 D,2 D,3 D, | D6 z2 | z2!f! D2 D2 CB, | %290
w: |Ross,|_ o Lieb', o|Lie- be,|_ so lass mich|los!|o Lieb', o _|
w: |||||||
w: |||||||
 B,4 B,2 z2 | z2 B,2 B,2 A,G, | G,4 z2!f! G,G, | G,4 G,3 G, | F,4 z2!ff! F,F, | F,4 F,3 F, | %296
w: Lie- be|so lass mich _|_||||
w: ||||||
w: ||||||
 B,,8 || z2!pp! B,B, B,2 B,B, | B,2 B,B, B,2 B,2 | B,4 B,,2 B,,B,, | B,,2 B,,B,, B,,2 B,,2 | %301
w: |||||
w: |||||
w: |||||
 B,,4 z4 | z8 | z2 z F, F,2 B,D | C2 F,F, F,B,DB, | F,8- | F,8 | !fermata!F,7 ||[K:B]!pp! B, | %309
w: ||durch Wäl- der und|Hei- den wo- hin, _ ach wo-|hin?|_|||
w: ||||||||
w: ||||||||
 B,4 B,3 B, | B,4 B,4 | B,4 (3B,2 B,2 B,2 | B,8 |"^cresc." D,4 (3F,2 F,2 F,2 | G,4 G,4 | %315
w: ||||||
w: ||||||
w: ||||||
 G,4 G,3 G, | F,7!f! F, | B,,4 B,3 B, | B,4 B,4 | B,4 (3B,2 B,2 B,2 | E,8 |!ff! F,4 (3F,2 F,2 F,2 | %322
w: |||||||
w: |||||||
w: |||||||
 G,4 !>!C,4 | F,4 F,3 F, | B,,6!p! F,2 | F,4 F,3 F, | F,8- | F,8 | !fermata!F,7!f! F, | %329
w: ||||Fri-||sche! *|
w: |||||||
w: |||||||
 B,4 B,3 B, | B,4 B,4 | B,4 (3B,2 B,2 B,2 | E,8 |!ff! F,4 (3F,2 F,2 F,2 | G,4 !>!C,4 | F,4 F,3 F, | %336
w: |||||||
w: |||||||
w: |||||||
 B,,8- | B,,8- | B,,2!pp! B,,B,, B,,2 B,,B,, | B,,2 B,,B,, B,,2 B,,2 | B,,4 B,,2 B,,B,, | %341
w: Brust.|_|* Im- mer wei- ter und|wei- ter die Klän- ge|ziehn, wei- ter und|
w: |||||
w: |||||
 B,,2 B,,B,, B,,2 B,,2 |"^cresc." B,,8- | B,,2 z2 z4 | z2 z!f! B, B,2 B,2 |"^cresc." (B,4 G,4 | %346
w: wei- ter die Klän- ge|ziehn,|_|die Klän- ge|ziehn, _|
w: |||||
w: |||||
 ^E,8-) | E,4 z4 |!ff! F,4 (3F,2 F,2 F,2 | G,4 C,4 | F,4 F,3 F, | !fermata!B,,8 |] %352
w: _||||||
w: ||||||
w: ||||||

